overrides/.icons/dmg/res.svg

<?xml version="1.0" encoding="UTF-8" standalone="no"?>
<svg
   viewBox="0 0 24 24"
   version="1.1"
   id="svg1"
   sodipodi:docname="res.svg"
   inkscape:version="1.3.2 (091e20e, 2023-11-25, custom)"
   xmlns:inkscape="http://www.inkscape.org/namespaces/inkscape"
   xmlns:sodipodi="http://sodipodi.sourceforge.net/DTD/sodipodi-0.dtd"
   xmlns="http://www.w3.org/2000/svg"
   xmlns:svg="http://www.w3.org/2000/svg">
  <defs
     id="defs1" />
  <sodipodi:namedview
     id="namedview1"
     pagecolor="#ffffff"
     bordercolor="#111111"
     borderopacity="1"
     inkscape:showpageshadow="0"
     inkscape:pageopacity="0"
     inkscape:pagecheckerboard="1"
     inkscape:deskcolor="#d1d1d1"
     inkscape:zoom="10.8125"
     inkscape:cx="4.3930636"
     inkscape:cy="15.676301"
     inkscape:window-width="1366"
     inkscape:window-height="697"
     inkscape:window-x="-8"
     inkscape:window-y="-8"
     inkscape:window-maximized="1"
     inkscape:current-layer="svg1" />
  <path
     id="path3-2-7"
     style="stroke-width:0.99999"
     d="M 11.999999,1 4.2523462,4.4443163 V 6.263063 L 11.999999,2.8187469 19.747654,6.263063 V 4.4443163 Z" />
  <path
     d="M 19.747654,12.669797 C 19.747654,17.447515 16.44199,21.915328 12.000001,23 7.5580134,21.915328 4.252347,17.447515 4.252347,12.669797 V 7.5046933 l 7.747654,-3.4434018 7.747653,3.4434018 z m -7.747653,8.608502 c 3.22819,-0.86085 6.025954,-4.700243 6.025954,-8.419117 V 8.6237987 L 12.000001,5.9379454 Z"
     id="path1-6-4"
     style="stroke-width:0.999999" />
</svg>

<?xml version="1.0" encoding="UTF-8"?>
<svg id="svg1" version="1.1" viewBox="0 0 24 24" xmlns="http://www.w3.org/2000/svg">
 <path id="path3-2-7" d="m12 1-7.7477 3.4443v1.8187l7.7477-3.4443 7.7477 3.4443v-1.8187z" stroke-width=".99999"/>
 <path id="path1-6-4" d="m19.748 12.67c0 4.7777-3.3057 9.2455-7.7477 10.33-4.442-1.0847-7.7477-5.5525-7.7477-10.33v-5.1651l7.7477-3.4434 7.7477 3.4434zm-7.7477 8.6085c3.2282-0.86085 6.026-4.7002 6.026-8.4191v-4.2354l-6.026-2.6859z"/>
</svg>
